Simply-Green-Circles/scalable/apps/nvidia-settings.svg

<svg xmlns="http://www.w3.org/2000/svg" width="48" height="48" viewBox="0 0 12.7 12.7"><path d="M6.34.07a6.29 6.29 0 0 0-6.28 6.3 6.29 6.29 0 0 0 6.28 6.28 6.29 6.29 0 0 0 6.3-6.29A6.29 6.29 0 0 0 6.33.07zm-.01.94a5.4 5.4 0 0 1 5.4 5.4 5.4 5.4 0 0 1-5.4 5.41 5.4 5.4 0 0 1-5.41-5.4A5.4 5.4 0 0 1 6.32 1zm-.86 3.04c-1.97.17-3.66 1.83-3.66 1.83s.96 2.84 3.7 3.1l.34.03c1.44 0 3.96-.76 5.05-1.68-.16-.16-.91-.54-1.1-.7-1.15 1-2.34 1.87-3.98 1.87l-.32-.03C3.5 8.22 2.82 6 2.82 6s.88-1.34 2.65-1.49h.13c1.62-.05 2.72 1.4 2.72 1.4s-1.17 1.6-2.4 1.6c-.17 0-.31-.05-.45-.1-.85-.28-1.13-1.29-1.13-1.29s.4-.44.91-.5h.22c.6.08.74.4 1.1 1l.86-.72s-.63-.8-1.67-.8c-.1 0-.2.02-.29.03-1.2.13-1.92.95-1.92.95s.4 1.56 1.92 1.83c.13.02.27.03.41.03 1.76 0 3.45-2.05 3.45-2.05S7.86 3.98 5.6 4.05h-.13zM7.23 6.4v.01h.04V6.4h-.04z" fill="#2ca02c"/></svg>

<?xml version="1.0" encoding="UTF-8" standalone="no"?>
<svg
   xmlns:dc="http://purl.org/dc/elements/1.1/"
   xmlns:cc="http://creativecommons.org/ns#"
   xmlns:rdf="http://www.w3.org/1999/02/22-rdf-syntax-ns#"
   xmlns:svg="http://www.w3.org/2000/svg"
   xmlns="http://www.w3.org/2000/svg"
   xmlns:sodipodi="http://sodipodi.sourceforge.net/DTD/sodipodi-0.dtd"
   xmlns:inkscape="http://www.inkscape.org/namespaces/inkscape"
   width="48"
   height="48"
   viewBox="0 0 12.7 12.7"
   version="1.1"
   id="svg6"
   sodipodi:docname="nvidia-settings.svg"
   inkscape:version="0.92.4 (5da689c313, 2019-01-14)">
  <defs
     id="defs10" />
  <sodipodi:namedview
     pagecolor="#ffffff"
     bordercolor="#666666"
     borderopacity="1"
     objecttolerance="10"
     gridtolerance="10"
     guidetolerance="10"
     inkscape:pageopacity="0"
     inkscape:pageshadow="2"
     inkscape:window-width="1087"
     inkscape:window-height="480"
     id="namedview8"
     showgrid="false"
     inkscape:zoom="4.9166667"
     inkscape:cx="2.1355932"
     inkscape:cy="24"
     inkscape:window-x="0"
     inkscape:window-y="25"
     inkscape:window-maximized="0"
     inkscape:current-layer="svg6" />
  <metadata
     id="metadata2">
    <rdf:RDF>
      <cc:Work>
        <dc:format>image/svg+xml</dc:format>
        <dc:type
           rdf:resource="http://purl.org/dc/dcmitype/StillImage" />
        <dc:title></dc:title>
      </cc:Work>
    </rdf:RDF>
  </metadata>
  <path
     d="M 6.34,0.07 A 6.29,6.29 0 0 0 0.06,6.37 6.29,6.29 0 0 0 6.34,12.65 6.29,6.29 0 0 0 12.64,6.36 6.29,6.29 0 0 0 6.33,0.07 Z M 6.33,1.01 a 5.4,5.4 0 0 1 5.4,5.4 5.4,5.4 0 0 1 -5.4,5.41 A 5.4,5.4 0 0 1 0.92,6.42 5.4,5.4 0 0 1 6.32,1 Z M 5.47,4.05 C 3.5,4.22 1.81,5.88 1.81,5.88 c 0,0 0.96,2.84 3.7,3.1 L 5.85,9.01 C 7.29,9.01 9.81,8.25 10.9,7.33 10.74,7.17 9.99,6.79 9.8,6.63 8.65,7.63 7.46,8.5 5.82,8.5 L 5.5,8.47 C 3.5,8.22 2.82,6 2.82,6 2.82,6 3.7,4.66 5.47,4.51 H 5.6 c 1.62,-0.05 2.72,1.4 2.72,1.4 0,0 -1.17,1.6 -2.4,1.6 C 5.75,7.51 5.61,7.46 5.47,7.41 4.62,7.13 4.34,6.12 4.34,6.12 c 0,0 0.4,-0.44 0.91,-0.5 h 0.22 c 0.6,0.08 0.74,0.4 1.1,1 L 7.43,5.9 c 0,0 -0.63,-0.8 -1.67,-0.8 -0.1,0 -0.2,0.02 -0.29,0.03 -1.2,0.13 -1.92,0.95 -1.92,0.95 0,0 0.4,1.56 1.92,1.83 0.13,0.02 0.27,0.03 0.41,0.03 1.76,0 3.45,-2.05 3.45,-2.05 0,0 -1.47,-1.91 -3.73,-1.84 z M 7.23,6.4 V 6.41 H 7.27 V 6.4 Z"
     id="path4"
     inkscape:connector-curvature="0"
     style="fill:#2ca02c" />
</svg>
